!!!!SEGMENT: pl-wtm--r-1367_stefani-jozef--szalona-marychna.krn
!!!cenid: 18xx:2408
!!!COM: Stefani, Józef
!!!COM-rismID: pe30024097
!!!CDT: 1800/04/16-1876/03/19
!!!CNT: Polish
!!!OTL: Szalona Marychna
!!!PDT:
!!!AGN: Secular; March
!!!SMS-siglum: PL-Wtm
!!!SMS-shelfmark: R 1367
!!!SMS-shelfwork: W
!!!SMS-variant:
!!!SMS-altvar:
!!!NIFC-rismSourceID: 1001117213
!!!NIFC-rismChildID: 1001117213
!!!NIFC-islandoraID: pl-wtm:25371
!!!URL-pdf-islandora: https://repozytorium.nifc.pl/islandora/object/pl-wtm%3A25371/datastream/PDF/view
!!!URL-scan: https://polish.musicsources.pl/pl/lokalizacje/galeria/rekopisy/6216 @EN{Scan on Polish Music Sources Website} @PL{Skany w portalu Dziedzictwo Muzyki Polskiej w otwartym dostępie}
!!!IIIF:
!!!ONB-nifc:
!!!AIN: 1 empty
!!!key:
**kern	**kern	**dynam
*part1	*part1	*part1
*staff2	*staff1	*
*Iempty	*Iforte	*
*	*I"Fortepian	*
*>[A,B,B1,B,B2,C,D,D,E,A,B,B1,B,B2]	*>[A,B,B1,B,B2,C,D,D,E,A,B,B1,B,B2]	*>[A,B,B1,B,B2,C,D,D,E,A,B,B1,B,B2]
*>A	*>A	*>A
*clefF4	*clefG2	*
*k[b-]	*k[b-]	*
*d:	*d:	*
*M2/4	*M2/4	*
*all\right	*all\right	*
=1	=1	=1
!	!	!LO:DY:rj
8DL 8DD/	8ffL 8a 8f\	f
!	!	!LO:DY:rj
8AJ 8F 8D/	16aL 16f\	p
.	16aJJ 16f\	.
*rep	*	*
8DL 8DD/	8ddL 8a 8f/	.
8AJ 8F 8D/	8aJ 8f/	.
*Xrep	*	*
=2	=2	=2
8DL 8DD\	(16b-/LL	.
.	16a/	.
8B-J 8G 8D\	16g/	.
.	16b-/JJ	.
8DL 8DD\	8a/L)	.
8AJ 8F 8D\	8f'/J	.
=3	=3	=3
!	!	!LO:DY:rj
8AAL 8AAA/	16g'/LL	f
.	16f'/J	.
8GJ 8E 8C#X 8AA/	8e'/J	.
8AAL 8AAA/	16f'/LL	.
.	16e'/J	.
8AJ 8F 8D 8AA/	8d'/J	.
!!LO:LB:g=original
=4	=4	=4
8AAL 8AAA/	16c#X/LL	.
.	16d/	.
8GJ 8E 8AA/	16e/	.
.	16c#/JJ	.
8AAL 8AAA/	8A/L	.
8GJ 8E 8C#X 8AA/	8aJ 8e 8c#/	.
=5	=5	=5
!	!	!LO:DY:rj
8DL 8DD/	8ffL 8a 8f/	f
!	!	!LO:DY:rj
8AJ 8F 8D/	16aL 16f/	p
.	16aJJ 16f/	.
*rep	*	*
8DL 8DD/	8ddL 8a 8f/	.
8AJ 8F 8D/	8aJ 8f/	.
*Xrep	*	*
=6	=6	=6
8DL 8DD/	(16b-/LL	.
.	16a/	.
8B-J 8G 8D/	16g/	.
.	16b-/JJ	.
8DL 8DD/	8a/L)	.
8AJ 8F 8D/	8f'/J	.
=7	=7	=7
!	!	!LO:DY:rj
8AAL 8AAA/	16ee'\LL	f
.	16cc#X'\J	.
8GJ 8E 8C#X 8AA/	8a'\J	.
8AAL 8AAA/	16ff'\LL	.
.	16dd'\J	.
8FJ 8D 8AA/	8a'\J	.
!!LO:LB:g=original
=8	=8	=8
.	(>8qa/	.
8AAL 8AAA/	16aa\LL	.
.	16gg\	.
8GJ 8E 8AA/	16ee\	.
.	16cc#X\JJ	.
8F 8D\	8dd\)	.
8r	8r	.
=9!|:	=9!|:	=9!|:
*>B	*>B	*>B
!	!	!LO:DY:rj
8FL 8FF\	8ffL 8a 8f\	f
8cJ 8A 8F\	16ccL 16a 16f\	.
.	16ccJJ 16a 16f\	.
*rep	*	*
8FL 8FF\	8dd-XL 8b- 8f\	.
8cJ 8A 8F\	8ccJ 8a 8f\	.
*Xrep	*	*
=10	=10	=10
8FL 8FF\	(16ccc\LL	.
.	16bb-\	.
8eJ 8c 8B- 8F\	16gg\	.
.	16ee\JJ)	.
8FL 8FF^\	8dddL 8bbn 8aa-X 8ff'\	.
8fJ 8c 8A 8F^\	8cccJ 8aan 8ff'\	.
=11	=11	=11
8FL 8FF\	8ffL 8a 8f\	.
8cJ 8A 8F\	16ccL 16a 16f\	.
.	16ccJJ 16a 16f\	.
*rep	*	*
8FL 8FF\	8dd-XL 8b- 8f\	.
8cJ 8A 8F\	8ccJ 8a 8f\	.
*Xrep	*	*
!!LO:LB:g=original
=12	=12	=12
8FL 8FF\	(16ccc\LL	.
.	16bb-\	.
8dJ 8B- 8F\	16gg\	.
.	16ee\JJ	.
8c 8A 8F\	8ff\)	.
8r	8r	.
=13	=13	=13
(8qG#X/	(8qg#X/	p
8A\L)	8a/L)	.
8A'\J	8a/J	sf
*rep	*rep	*
(8qG#/	(8qg#/	.
8A\L)	8a/L)	.
8A\J	8a/J	sfy
*Xrep	*Xrep	*
=14	=14	=14
(16F\LL	(16f/LL	.
16G\	16g/	.
16F\	16f/	.
16E\JJ	16e/JJ	.
8D\L)	8d/L)	.
8F\J	8f'/J	.
=15	=15	=15
(8qA/	(8qa/	.
8B-X\L)	8b-X/L)	.
8B-'\J	8b-'/J	sf
*rep	*rep	*
(8qA/	(8qa/	.
8B-X\L)	8b-X/L)	.
8B-'\J	8b-'/J	sfy
*Xrep	*Xrep	*
!!LO:LB:g=original
=16	=16	=16
16G\LL	(16g/LL	.
16A\	16a/	.
16G\	16g/	.
16F\JJ	16f/JJ	.
8E\L	8e/L)	.
8G\J	8g'/J	.
=17	=17	=17
(8qBn/	(8qbn/	.
8c\L)	8cc\L)	.
8c'\J	8cc'\J	sf
*rep	*rep	*
(8qB/	(8qb/	.
8c\L)	8cc\L)	.
8c'\J	8cc'\J	sfy
*Xrep	*Xrep	*
=18	=18	=18
(8qB#X/	(8qb#X/	.
8c#X\L)	8cc#X\L)	.
8c#'\J	8cc#'\J	sf
*rep	*rep	*
(8qB#X/	(8qb#X/	.
8c#\L)	8cc#\L)	.
8c#'\J	8cc#'\J	sfy
*Xrep	*Xrep	*
=19	=19	=19
(8qc#X/	(8qcc#X/	.
8d\L)	8dd\L)	.
8d\J	8dd'\J	sf
.	8qdd/	.
8B-XL 8BB-X\	8g#XL 8d/	.
8B-J 8BB-\	8g#J 8d/	sf
!!LO:LB:g=original
=20	=20	=20
!	!	!LO:DY:rj:t=for
8AL 8AA\	8a 8c#X/	f
16AL 16AA\	8r	.
16B-XJJ 16BB-X\	.	.
16ALL 16AA/	16a'/LL	.
16G 16GG/	16cc#X 16a'/	.
16F 16FF/	16dd 16a'/	.
16C#XJJ 16CC#X/	16eeJJ 16a'/	.
=21	=21	=21
!	!	!LO:DY:rj
8DL 8DD\	8ffL 8a 8f\	f
!	!	!LO:DY:rj
8AJ 8F 8D\	16aL 16f\	p
.	16aJJ 16f\	.
*rep	*	*
8DL 8DD\	8ddL 8a 8f/	.
8AJ 8F 8D\	8aJ 8f/	.
*Xrep	*	*
=22	=22	=22
8DL 8DD\	(16b-/LL	.
.	16a/	.
8B-J 8G 8D\	16g/	.
.	16b-/JJ	.
8DL 8DD\	8a/L)	.
8AJ 8F 8D\	8f'/J	.
=23	=23	=23
*^	*	*
4GG/	8GG\L	16g'/LL	f
.	.	16f'/J	.
.	8GJ 8E 8BB-X\	8e'/J	.
4AA/	8AA\L	16f'/LL	.
.	.	16e'/J	.
.	8FJ 8D\	8d'/J	.
!!LO:PB:g=original
=24	=24	=24	=24
!LO:TX:a:t=1a	!	!	!
*>B1	*>B1	*>B1	*>B1
4AA/	8AA\L	16c#X/LL	.
.	.	16d/	.
.	8GJ 8E\	16e/	.
.	.	16c#/JJ	.
8F 8D\	4ryy	8d/	.
8CnX 8CCnX/	.	8ee 8b- 8g\	sf
=25:|!	=25:|!	=25:|!	=25:|!
!LO:TX:a:t=2da	!	!	!
*>B2	*>B2	*>B2	*>B2
4AA/	8AA\L	16c#X/LL	.
.	.	16d/	.
.	8GJ 8E\	16e/	.
.	.	16c#/JJ	.
8F 8D\	4ryy	8d/	.
!	!	!LO:TX:t=P:problem=fermata na kresce taktowej	!
8r	.	8r;	.
*v	*v	*	*
!!LO:LB:g=original
=26||	=26||	=26||
*>C	*>C	*>C
*k[bnf#c#]	*k[bnf#c#]	*
!	!	!LO:DY:rj
8DL 8AA 8DD/	(>8f#L 8d 8A'>/	p
8D 8AA 8DD/	8f# 8d 8A'>/	.
8D 8AA 8DD/	8f# 8d 8A'>/	.
8DJ 8AA 8DD/	8f#J 8d 8A'>/)	.
=27	=27	=27
8DL 8AA 8GG 8DD/	8eL 8c# 8A/	sf
8DJ 8AA 8GG 8DD/	(16e/L	.
.	16f#/JJ)	.
8DL 8AA 8FF# 8DD/	8d/L	.
8DJ 8AA 8FF# 8DD/	8A/J	.
=28	=28	=28
*tremolo	*tremolo	*
!	!LO:TX:a:t=....	!
8DL 8AA 8DD/	(8f#L 8d 8A'/	.
8D 8AA 8DD/	8f# 8d 8A'/	.
8D 8AA 8DD/	8f# 8d 8A'/	.
8DJ 8AA 8DD/	8f#J 8d 8A'/)	.
*Xtremolo	*Xtremolo	*
=29	=29	=29
8EL 8AA 8GG 8DD/	(16a/LL	sf
.	16g/	.
8EJ 8AA 8GG 8DD/	16e/	.
.	16c#X/JJ)	.
8D 8AA 8FF# 8DD/	8d/	.
8r	8r	.
!!LO:LB:g=original
=30	=30	=30
!	!	!LO:DY:rj
8dL 8A 8F# 8D\	(8ff#L 8dd 8a'\	mf
8d 8A 8F# 8D\	8ff# 8dd 8a'\	.
8d 8A 8F# 8D\	8ff# 8dd 8a'\	.
8dJ 8A 8F# 8D\	8ff#J 8dd 8a'\)	.
=31	=31	=31
!	!	!LO:DY:rj
8c#L 8A 8G 8D\	8ee'\L	sf
8c#J 8A 8G 8D\	(16ee\L	.
.	16ff#\JJ)	.
8dL 8A 8F# 8D\	8dd\L	.
8dJ 8A 8F# 8D\	8a\J	.
=32	=32	=32
*tremolo	*tremolo	*
*2\right	*2\right	*
!	!LO:TX:a:t=....	!
8dL 8A 8F# 8D\	(8ff#L 8dd 8a'\	.
8d 8A 8F# 8D\	8ff# 8dd 8a'\	.
8d 8A 8F# 8D\	8ff# 8dd 8a'\	.
8dJ 8A 8F# 8D\	8ff#J 8dd 8a'\)	.
*Xtremolo	*Xtremolo	*
=33	=33	=33
8c#L 8A 8G 8D\	(16bb\LL	sf
.	16aa\	.
8c#J 8A 8G 8D\	16gg\	.
.	16ee\JJ	.
8d 8A 8F# 8D\	8dd\)	.
8r	8r	.
!!LO:LB:g=original
=34!|:	=34!|:	=34!|:
*>D	*>D	*>D
*^	*	*
!	!	!	!LO:DY:rj
4AA/	8AA\L	16a'/LL	p
.	.	16b'/J	.
.	8GJ 8E\	8cc#'/J	.
!	!	!	!LO:DY:rj
8AAL 8AAA/	4ryy	16eeLL 16cc#'\	f
.	.	16ff#J 16dd'\	.
8GJ 8E 8C# 8AA/	.	8ggJ 8ee'\	.
*v	*v	*	*
=35	=35	=35
!	!	!LO:DY:rj
8DL 8DD/	16dd'\LL	p
.	16ee'\J	.
8F#J 8D 8AA/	8ff#'\J	.
!	!	!LO:DY:rj
8DL 8DD/	16ff#LL 16dd'\	f
.	16ggJ 16ee'\	.
8F#J 8D 8AA/	8aaJ 8ff#'\	.
=36	=36	=36
(8AA\L	(16ccc#LL 16aa\	.
.	16bb 16gg\	.
8C#\	16ccc# 16aa\	.
.	16bbJJ 16gg\)	.
8E\	8ggL 8ee'^<\	.
8A\J)	8eeJ 8cc#'^<\	.
=37	=37	=37
(>8DD/L	(16bbLL 16gg\	.
.	16aa 16ff#\	.
8FF#/	16bb 16gg\	.
.	16aaJJ 16ff#\)	.
8AA/	8ff#L 8dd^<\	.
8D/J)	8dddJ 8ff# 8dd^<\	.
!!LO:LB:g=original
=38	=38	=38
*^	*	*
!	!	!	!LO:DY:rj
4AA/	8AA\L	16a'/LL	p
.	.	16b'/J	.
.	8GJ 8E\	8cc#'/J	.
!	!	!	!LO:DY:rj
8AAL 8AAA/	4ryy	16eeLL 16cc#'\	f
.	.	16ff#J 16dd'\	.
8GJ 8E 8C# 8AA/	.	8ggJ 8ee'\	.
*v	*v	*	*
=39	=39	=39
!	!	!LO:DY:rj
8DL 8DD/	16dd'\LL	p
.	16ee'\J	.
8F#J 8D 8AA/	8ff#'\J	.
!	!	!LO:DY:rj
8GG#XL 8GGG#X/	16bbLL 16b'^<\	f
.	16ccc#J 16cc#'\	.
8FnJ 8D 8BB 8GG#/	8dddJ 8dd'\	.
=40	=40	=40
8AAL 8AAA/	16aaLL 16ff#'\	.
.	16fff#J 16ddd'\	.
8F#XJ 8D 8AA/	8dd'\J	.
*rep	*	*
8AAL 8AAA/	16ff#LL 16dd'\	.
.	16aaJ 16ff#'\	.
8F#J 8D 8AA/	8a'\J	.
*Xrep	*	*
=41	=41	=41
.	(16qqa/LL	.
.	16qqcc#/	.
.	16qqee/JJ)	.
8GL 8E 8C# 8AA\	(16bb\LL	.
.	16aa\	.
8GJ 8E 8C# 8AA\	16gg\	.
.	16ee\JJ	.
8F# 8D\	8dd\)	.
8r	8r	.
!!LO:LB:g=original
=42:|!	=42:|!	=42:|!
*>E	*>E	*>E
!	!	!LO:DY:rj
(16Cn/LL	(16ee-X\LL	p
16BB/	16dd\	.
16C/	16ee-\	.
16D/JJ)	16dd\JJ	.
8E-X\L	8ccn\L)	.
8cnJ 8G 8E-\	8b-X'\J	.
=43	=43	=43
*tremolo	*	*
!LO:SIC:v:n=1:s=8cnL	!	!
8c#L 8A 8D\	(16a/LL	.
.	16g#X/	.
!LO:SIC:v:n=1:s=8cn	!	!
8c# 8A 8D\	16a/	.
.	16f#/JJ	.
!LO:SIC:v:n=1:s=8cn	!	!
8c# 8A 8D\	8d/L)	.
!LO:SIC:v:n=1:s=8cnJ	!	!
8c#J 8A 8D\	8ddJ 8d'/	sf
*Xtremolo	*	*
=44	=44	=44
(16Cn/LL	(16ee-X\LL	.
16BB/	16dd\	.
16C/	16ee-\	.
16D/JJ)	16dd\JJ	.
8E-X\L	8ccn\L)	.
8cnJ 8G 8E-\	8b-X'\J	.
=45	=45	=45
*tremolo	*	*
!LO:SIC:v:n=1:s=8cnL	!	!
8c#L 8A 8D\	(16a/LL	.
.	16g#X/	.
!LO:SIC:v:n=1:s=8cn	!	!
8c# 8A 8D\	16a/	.
.	16f#/JJ)	.
!LO:SIC:v:n=1:s=8cn	!	!
8c# 8A 8D\	8d/L	.
!LO:SIC:v:n=1:s=8cnJ	!	!
8c#J 8A 8D\	8d/J	sf
*Xtremolo	*	*
=46	=46	=46
(16G\LL	(16g/LL	.
16F#\	16f#/	.
16G\	16g/	.
16A\JJ	16a/JJ	.
!	!	!LO:HP:t=cresc
8B-X\L)	8b-X/L)	<
8G\J	8g/J	.
=47	=47	=47
16G#X\LL	(16g#X/LL	.
16F##X\	16f##X/	.
16G#\	16g#/	.
16A\JJ	16a/JJ)	.
8Bn\L	8bn/L	.
8G#\J	8g#/J	.
=48	=48	=48
16A'\LL	16a'/LL	.
16G#X'\J	16g#X'/J	.
8A'\J	8a'/J	.
16A'\LL	16a'/LL	.
16B-X'\J	16b-X'/J	.
8A'\J	8a'/J	.
=49	=49	=49
(16A\LL	(16a/LL	.
16G#X\	16g#X/	.
16A\	16a/	f
16G#\JJ	16g#/JJ	.
16A\)	16a\LL)	.
16GnLL 16GG'/	16cc#X 16a'^<\	.
16F# 16FF#'/	16dd 16a'^<\	.
!LO:TX:b:i:t=Da capo\nla Polka	!	!
16EJJ 16EE'/	16eeJJ 16a'^<\	.
==	==	==
*-	*-	*-
!!!system-decoration: {(s1,s2)}
!!!RDF**kern: > = above
!!!RDF**kern: < = below
!!!ENC: Andrzej Kubiczek
!!!END: 2021-06-19
!!!ENC: Andrzej Kubiczek
!!!END: 2021-06-12
!!!YEC: Copyright 2022 Narodowy Instytut Fryderyka Chopina (https://polishscores.org)
!!!YEM: License CC-BY-4.0 (https://creativecommons.org/licenses/by/4.0)
